X:9
T:Happy to Meet Sorry to Part
R:jig
O:Irish
D:John Campbell, Cape Breton Violin Music (1975-2006)
Z:Paul Stewart Cranford (P.S.C.), <http://www.cranfordpub.com>
L:1/8
M:6/8
Q:300
K:G
edB BAB|GEF G2 A|Bee dBG|BAA A2 f|
edB BAB|GEF G2 A|Bee dBA|[1BGG G2 g:|[2BGG G2||
||f|:gag fed|Bdd def|gag fed|Bee e2 f|
gag fed|Bdd def|gfg eag|[1fef g2 d:|[2fef g2 f|]
